X: 31890
T: Peach Blossoms
R: barndance
M: 4/4
K: Dmajor
|A2 fA A2 fA|B2 g2 g2 ed|ceae cea^g|b2 a2 a2 A/A/A|
A2 fA A2 fA|B2 g2 g2 ed|ceba ^ga=ge|1 d2 d2 d2 A/A/A:|2 d2 d2 dcBc||
|:A2 A2 Bcde|fdAF A3 B|cAGA c3 a|ba^ga f2 dA|F2 A2 Bcde|
fdAF A3 c|dcBc dgfe|1 d2 d2 dcBc:|2 d2 d2 =cdcA||
|:BDGB dgbg|a2 e2 e2 ag|f2 =c2 c2 e/f/e|d2 B2 B2 d=c|
BDGB dgbg|a2 e2 e2 ag|fd=cA dcAF|1 G2 G2 G2 d=c:|2 G2 G2 G2A2||

